assets/img/braze_icons/copy-01.svg

<svg fill="none" height="24" viewBox="0 0 24 24" width="24" xmlns="http://www.w3.org/2000/svg"><g fill="#801ed7"><path clip-rule="evenodd" d="m12.1615 8h6.677c.5272-.00002.982-.00003 1.3565.03057.3954.0323.7886.10362 1.167.29641.5645.28762 1.0234.74656 1.311 1.31105.1928.37837.2641.77157.2964 1.16697.0306.3746.0306.8293.0306 1.3565v6.677c0 .5272 0 .982-.0306 1.3565-.0323.3954-.1036.7886-.2964 1.167-.2876.5645-.7465 1.0234-1.311 1.311-.3784.1928-.7716.2641-1.167.2964-.3746.0306-.8293.0306-1.3565.0306h-6.677c-.5272 0-.9819 0-1.3565-.0306-.3954-.0323-.7886-.1036-1.16697-.2964-.56449-.2876-1.02343-.7465-1.31105-1.311-.19279-.3784-.26411-.7716-.29641-1.167-.0306-.3745-.03059-.8293-.03057-1.3565v-6.677c-.00002-.5272-.00003-.982.03057-1.3565.0323-.3954.10362-.7886.29641-1.16697.28762-.56449.74656-1.02343 1.31105-1.31105.37837-.19279.77157-.26411 1.16697-.29641.3745-.0306.8293-.03059 1.3565-.03057z" fill-rule="evenodd"/><path d="m11.8385 1h-6.67704c-.52712-.000016-.98193-.000031-1.35649.03057-.39534.0323-.78856.10362-1.16694.29641-.56449.28762-1.02343.74656-1.31105 1.31105-.19279.37838-.26411.7716-.29641 1.16694-.030601.37456-.030586.8293-.03057 1.35643v6.6771c-.000016.5272-.000031.982.03057 1.3565.0323.3954.10362.7886.29641 1.167.28762.5645.74656 1.0234 1.31105 1.311.37838.1928.7716.2641 1.16694.2964.37457.0306.82933.0306 1.35648.0306h.83855l-.00002-3.8808c-.00011-.4887-.00024-1.0185.03723-1.4771.0424-.519.14736-1.20471.50775-1.91203.47937-.94081 1.24427-1.70571 2.18508-2.18508.70732-.36039 1.39306-.46535 1.91206-.50775.4586-.03747.9884-.03734 1.477-.03723l3.8809.00002v-.83855c0-.52715 0-.98194-.0306-1.35651-.0323-.39534-.1036-.78856-.2964-1.16694-.2876-.56449-.7465-1.02343-1.311-1.31105-.3784-.19279-.7716-.26411-1.167-.29641-.3745-.030601-.8293-.030586-1.3565-.03057z"/></g></svg>

<svg width="24" height="24" viewBox="0 0 24 24" fill="none" xmlns="http://www.w3.org/2000/svg">
<path fill-rule="evenodd" clip-rule="evenodd" d="M12.1615 8H18.8385C19.3657 7.99998 19.8205 7.99997 20.195 8.03057C20.5904 8.06287 20.9836 8.13419 21.362 8.32698C21.9265 8.6146 22.3854 9.07354 22.673 9.63803C22.8658 10.0164 22.9371 10.4096 22.9694 10.805C23 11.1796 23 11.6343 23 12.1615V18.8385C23 19.3657 23 19.8205 22.9694 20.195C22.9371 20.5904 22.8658 20.9836 22.673 21.362C22.3854 21.9265 21.9265 22.3854 21.362 22.673C20.9836 22.8658 20.5904 22.9371 20.195 22.9694C19.8204 23 19.3657 23 18.8385 23H12.1615C11.6343 23 11.1796 23 10.805 22.9694C10.4096 22.9371 10.0164 22.8658 9.63803 22.673C9.07354 22.3854 8.6146 21.9265 8.32698 21.362C8.13419 20.9836 8.06287 20.5904 8.03057 20.195C7.99997 19.8205 7.99998 19.3657 8 18.8385V12.1615C7.99998 11.6343 7.99997 11.1795 8.03057 10.805C8.06287 10.4096 8.13419 10.0164 8.32698 9.63803C8.6146 9.07354 9.07354 8.6146 9.63803 8.32698C10.0164 8.13419 10.4096 8.06287 10.805 8.03057C11.1795 7.99997 11.6343 7.99998 12.1615 8Z" fill="#801ED7"/>
<path d="M11.8385 1H5.16146C4.63434 0.999984 4.17953 0.999969 3.80497 1.03057C3.40963 1.06287 3.01641 1.13419 2.63803 1.32698C2.07354 1.6146 1.6146 2.07354 1.32698 2.63803C1.13419 3.01641 1.06287 3.40963 1.03057 3.80497C0.999969 4.17953 0.999984 4.63427 1 5.1614V11.8385C0.999984 12.3657 0.999969 12.8205 1.03057 13.195C1.06287 13.5904 1.13419 13.9836 1.32698 14.362C1.6146 14.9265 2.07354 15.3854 2.63803 15.673C3.01641 15.8658 3.40963 15.9371 3.80497 15.9694C4.17954 16 4.6343 16 5.16145 16H6L5.99998 12.1192C5.99987 11.6305 5.99974 11.1007 6.03721 10.6421C6.07961 10.1231 6.18457 9.43739 6.54496 8.73007C7.02433 7.78926 7.78923 7.02436 8.73004 6.54499C9.43736 6.1846 10.1231 6.07964 10.6421 6.03724C11.1007 5.99977 11.6305 5.9999 12.1191 6.00001L16 6.00003V5.16148C16 4.63433 16 4.17954 15.9694 3.80497C15.9371 3.40963 15.8658 3.01641 15.673 2.63803C15.3854 2.07354 14.9265 1.6146 14.362 1.32698C13.9836 1.13419 13.5904 1.06287 13.195 1.03057C12.8205 0.999969 12.3657 0.999984 11.8385 1Z" fill="#801ED7"/>
</svg>
